!!!OTL: VERSCHWUNDEN IST DES TAGES LICHT
!!!ARE: Europa, Mitteleuropa, Deutschland
!!!SCT: F0236
!!!YEM: Copyright 1995, estate of Helmut Schaffrath.
**kern
*ICvox
*Ivox
*M4/4
*k[b-e-a-d-]
*A-:
{4a-
=1
4cc
4b-
4a-
4e-
=2
4f
4g
4a-}
{4cc
=3
4b-
4g
4a-
4f
=4
2e-
4r}
{4cc
=5
4b-
4a-
4g
4f
=6
4.e-
8d-
4c}
{4a-
=7
4.f
8b-
4a-
4g
=8
2a-
4r}
==
!!!AGN: Jugend - Lied, Abend
!!!ONB: ESAC (Essen Associative Code) Database: FINK
!!!AMT: simple quadruple
!!!AIN: vox
!!!EED: Helmut Schaffrath
!!!EEV: 1.0
*-
